icons/roblox.svg

<!--
  - The MIT License (MIT)
  -
  - Copyright (c) 2015-2024 Elior "Mallowigi" Boukhobza
  -
  - Permission is hereby granted, free of charge, to any person obtaining a copy
  - of this software and associated documentation files (the "Software"), to deal
  - in the Software without restriction, including without limitation the rights
  - to use, copy, modify, merge, publish, distribute, sublicense, and/or sell
  - copies of the Software, and to permit persons to whom the Software is
  - furnished to do so, subject to the following conditions:
  -
  - The above copyright notice and this permission notice shall be included in all
  - copies or substantial portions of the Software.
  -
  - THE SOFTWARE IS PROVIDED "AS IS", WITHOUT WARRANTY OF ANY KIND, EXPRESS OR
  - IMPLIED, INCLUDING BUT NOT LIMITED TO THE WARRANTIES OF MERCHANTABILITY,
  - FITNESS FOR A PARTICULAR PURPOSE AND NONINFRINGEMENT. IN NO EVENT SHALL THE
  - AUTHORS OR COPYRIGHT HOLDERS BE LIABLE FOR ANY CLAIM, DAMAGES OR OTHER
  - LIABILITY, WHETHER IN AN ACTION OF CONTRACT, TORT OR OTHERWISE, ARISING FROM,
  - OUT OF OR IN CONNECTION WITH THE SOFTWARE OR THE USE OR OTHER DEALINGS IN THE
  - SOFTWARE.
  -
  -->

<svg width="16px" height="16px" viewBox="0 0 24 24" fill="none" xmlns="http://www.w3.org/2000/svg">
  <path fill-rule="evenodd" clip-rule="evenodd"
        d="M22 6.2265L6.2265 2L3.93714 10.544L10.0713 12.1876L10.4235 10.8732L10.717 9.77779L14.2223 10.717L20.3564 12.3606L22 6.2265ZM13.283 14.2222L13.283 14.2222L3.64363 11.6394L2 17.7735L17.7735 22L20.0629 13.456L13.9288 11.8124L13.283 14.2222L13.283 14.2222Z"
        fill="#00A1FF" data-iconColor="Roblox"/>
</svg>

<svg xmlns="http://www.w3.org/2000/svg" fill="none" viewBox="0 0 24 24"><path fill="#00a1ff" fill-rule="evenodd" d="M22 6.227 6.227 2l-2.29 8.544 6.134 1.644.353-1.315.293-1.095 3.505.939 6.134 1.644zm-8.717 7.995-9.64-2.583L2 17.773 17.773 22l2.29-8.544-6.134-1.644z" clip-rule="evenodd" data-iconColor="Roblox"/></svg>
